/* XPM */
static const char * delete_dark_xpm[] = {
"24 24 91 1",
"A	c #FFFFFF",
"B	c #9494A0",
"C	c #DBDBDD",
"D	c #C9CAD1",
"E	c #9394A3",
"F	c #28282D",
"G	c #818394",
"H	c #040405",
"I	c #4B4D65",
"J	c #B6B6C3",
"K	c #A4A4AE",
"L	c #80818E",
"M	c #6E6E76",
"N	c #5C5E75",
"O	c #5C5C6C",
"P	c #4A4B59",
"Q	c #B5B5B6",
"R	c #A3A3AB",
"S	c #262731",
"T	c #7F8088",
"U	c #6D6E7E",
"V	c #494A64",
"W	c #37384D",
"X	c #9091A2",
"Y	c #90919C",
"Z	c #A1A1AF",
"a	c #E8E8E8",
"b	c #121214",
"c	c #6B6B71",
"d	c #C4C5CC",
"e	c #474961",
"f	c #474752",
"g	c #8E8EA1",
"h	c #D5D6DD",
"i	c #B1B1BF",
"j	c #7B7B8F",
"k	c #575869",
"l	c #B0B0BB",
"m	c #333443",
"n	c #33343E",
"o	c #9E9EAC",
"p	c #7A7A91",
"q	c #7A7A89",
"r	c #7A7A84",
"s	c #56576F",
"t	c #444660",
"u	c #43455A",
"v	c #1F2029",
"w	c #8A8A99",
"x	c #BFBFCB",
"y	c #ADAEB9",
"z	c #F4F4F4",
"0	c #53545E",
"1	c #BEBEC9",
"2	c #888896",
"3	c #88888A",
"4	c #76788B",
"5	c #E1E1E2",
"6	c #64667A",
"7	c #BDBDC4",
"8	c #ABABBA",
"9	c #ABABB4",
"+	c #9999AA",
"/	c #BCBCC8",
"!	c #3F4052",
"#	c #86869A",
"$	c #09090C",
"%	c #CDCDD5",
"&	c #626274",
"'	c #505265",
"(	c #BBBBBF",
")	c #3E3F4A",
"*	c #A9A9B8",
",	c #3E3E49",
"-	c #2C2D3D",
".	c #4F5069",
":	c #A8A9B5",
";	c #2B2C38",
"<	c #9696A8",
"=	c #84848D",
">	c #19191D",
"?	c #727488",
"@	c #727383",
"[	c #4E5069",
"]	c #4E4E5D",
"^	c #3C3D43",
"_	c #9596A1",
"`	c #9595A7",
"{	c #5F606F",
"|	c #A6A6B2",
" 	c None",
"         AAAAAA         ",
"       A53>F^cQAA       ",
"    AAAJu>b>$b):yAAA    ",
"   AstuNE=Q(7Y^VEIs@A   ",
"  AsWm-0M(CDh5y.M![sUA  ",
"  z-W;vn0MTRJ+wLuIVINA  ",
"  AS$SSv-;mPe.Neee!.?A  ",
"  AkfHH$vSS--!u!-nfGgA  ",
"  a6'^vbHHHHH$>S!U#X|A  ",
"  AZUOPFF;n^!u&???#El   ",
"   A(={;Sm-,[[[6GG_7A   ",
"   ADzd3c@]0N4?o9%AhA   ",
"   Ag:7CC5ACAAAAah%xA   ",
"   A#Kq2c2yL`xo8x*%lA   ",
"   ApRUT0=l@G/o|diD8A   ",
"   ApK'rfO9MM/o<1`/`A   ",
"   ApKOr,]B]&8jg/`/`A   ",
"   ApKOr,]B]&8jg/`/`A   ",
"   ApK&r,]B]&8jg/`/`A   ",
"   A#KOr,]B]&8jg/`/ZA   ",
"   A+KOT,]B]&8jg/`J*A   ",
"    A:G2POYP&8j<1*/A    ",
"     AAAK:iwoiJJAAA     ",
"       AAAAAAAAAA       "
};
