/* XPM */
static const char * delete_xpm[] = {
/* columns rows colors chars-per-pixel */
"28 28 91 1 ",
"  c None",
". c black",
"X c #0B0B0B",
"o c gray9",
"O c #1E1E1D",
"+ c #242422",
"@ c #2A2922",
"# c #32322A",
"$ c #36352E",
"% c #3B3A33",
"& c #404034",
"* c #414136",
"= c #434337",
"- c #42423B",
"; c #49493C",
": c #444440",
"> c #4E4E40",
", c #4F4F44",
"< c #4A4A49",
"1 c #525146",
"2 c #545445",
"3 c #565647",
"4 c #54544B",
"5 c #57564A",
"6 c #59594D",
"7 c #5B5B51",
"8 c #5E5E50",
"9 c #5C5C54",
"0 c #616153",
"q c #666655",
"w c #696957",
"e c #6A6A58",
"r c #6A695E",
"t c #6B6B5F",
"y c #6C6B5C",
"u c #6F6E5D",
"i c #71715E",
"p c #6F6E63",
"a c #757566",
"s c #797965",
"d c #777769",
"f c #7E7C6B",
"g c #777775",
"h c #7B7B72",
"j c #7F7E71",
"k c #807F77",
"l c #85856E",
"z c #848470",
"x c #858576",
"c c #898774",
"v c #8D8B77",
"b c #85857B",
"n c #8D8C7C",
"m c #929181",
"M c #9B9985",
"N c #919189",
"B c #94948E",
"V c #9D9D8B",
"C c #A09F90",
"Z c #A3A18A",
"A c #A3A393",
"S c #A8A796",
"D c #A9A890",
"F c #AFAD9A",
"G c #B0AF96",
"H c #B1AF96",
"J c #B4B29A",
"K c #B6B59B",
"L c #B8B69E",
"P c #BBB99F",
"I c #ACABA1",
"U c #B1B1A2",
"Y c #B5B4A6",
"T c #BCBAA5",
"R c #B8B8AD",
"E c #C0BFAD",
"W c #C1C0B5",
"Q c #C1C1B6",
"! c #C8C7B2",
"~ c #C3C2BC",
"^ c #CCCBBC",
"/ c #CCCBC1",
"( c #D3D2C2",
") c #D4D3C7",
"_ c #D9D8CE",
"` c #D7D7D2",
"' c #E0DFD6",
"] c #E6E6E2",
"[ c #EDEDEB",
"{ c #F6F6F3",
"} c #FBFBFA",
/* pixels */
"                            ",
"                            ",
"           ......           ",
"         .Og]`~B<..         ",
"      ...;T][]{[Q51...      ",
"     .DPTZyh<:-p~KyJDn.     ",
"    .D!^(IN:+$@O1GNEGDm.    ",
"    X(!)'/INk9;qajTJKJZ.    ",
"    ._{__'()^YLGZLLLEGv.    ",
"    .SR}}{'__((ETE(/Rfi.    ",
"    oMF~'[}}}}}{]_Emsu6.    ",
"    .8mAY``)/~ETVvvvsy,     ",
"     .:hC)_^(QGGGMfft-.     ",
"     .$X%gBnUIZcv05#.@.     ",
"     .i5-++O.+....o@#&.     ",
"     .s7xdBd1je&02&2#,.     ",
"     .l9mkIh,nf&06%>$2.     ",
"     .l7FbRA5NN&0w&e&e.     ",
"     .l7AbQUtUV2zi&e&e.     ",
"     .l7AbQUtUV2zi&e&e.     ",
"     .l7VbQUtUV2zi&e&e.     ",
"     .s7AbQUtUV2zi&e&8.     ",
"     .q7AkQUtUV2zi&e;5.     ",
"      .5fdYApYV2zw&2=.      ",
"       ...75>a0>;;...       ",
"         ..........         ",
"                            ",
"                            "
};
